**kern	**kern	**kern
*staff3	*staff2	*staff1
*tb32	*tb32	*tb32
*clefF4	*clefF4	*clefG2
*k[f#c#g#]	*k[f#c#g#]	*k[f#c#g#]
*M2/4	*M2/4	*M2/4
*A:	*A:	*A:
8G# 8e	8r	8b'J
=14	=14	=14
8A 8e	2r	8cc#'L
8r	.	8ee'J
8B	.	8dd#'L
8r	.	8ff#'J
=15	=15	=15
4G# 4B	2r	8ee'L
.	.	8gg#'J
8r	.	8ee'L
8G# 8e	.	8b'J
=16	=16	=16
8A 8e	2r	8cc#'L
8r	.	8ee'J
8B	.	8dd#'L
8r	.	8ff#'J
=17	=17	=17
4G# 4B	2r	8ee'L
.	.	8gg#'J
8r	.	8ee'L
8G# 8e	.	8b'J
=18	=18	=18
8A 8e	2r	8cc#'L
8r	.	8ee'J
8B	.	8dd#'L
8r	.	8ff#'J
=19	=19	=19
4G# 4B	2r	8ee'L
.	.	8gg#'J
8r	.	8ee'L
8G# 8e	.	8b'J
=20	=20	=20
8A 8e	2r	8cc#'L
8r	.	8ee'J
8B	.	8dd#'L
8r	.	8ff#'J
=21	=21	=21
8G# 8B	2r	8ee'L
8r	.	8gg#'J
8D# 8B	.	8ff#'L
8r	.	8aa'J
=22	=22	=22
8EL	2r	8gg#'L
8G#J	.	8ee'J
8BL	.	8b'L
8BBJ	.	8dd#'J
=23	=23	=23
2r;	2r;	2r;
=24	=24	=24
4E 4e	4.r	4g# 4ee
8r	.	8r
*-	*-	*-
